usr/share/icons/biglinux-icons-material/24/actions/media-random-albums-amarok.svg

<svg xmlns="http://www.w3.org/2000/svg" viewBox="0 0 24 24">
  <defs id="defs3051">
    <style type="text/css" id="current-color-scheme">
      .ColorScheme-Text {
        color:#dedede;
      }
      </style>
  </defs>
 <path style="fill:currentColor;fill-opacity:1;stroke:none" 
     d="M 3 4 L 3 20 L 4 20 L 8 20 L 8 18 C 7.44772 18 7 18.44772 7 19 L 6 19 L 6 12 L 6 5 L 7 5 C 7 5.55228 7.44772 6 8 6 C 8.55228 6 9 5.55228 9 5 L 13 5 L 17 5 C 17 5.55228 17.44772 6 18 6 C 18.55228 6 19 5.55228 19 5 L 20 5 L 20 12 L 21 12 L 21 4 L 4 4 L 3 4 z M 20 12 C 20 8.13401 16.86599 5 13 5 C 9.13401 5 6 8.13401 6 12 C 6.00206 13.854914 6.7493049 15.583962 8 16.867188 L 8 15.287109 C 7.3661508 14.324994 7.00133 13.191529 7 12 C 7 8.68629 9.68629 6 13 6 C 16.31371 6 19 8.68629 19 12 L 20 12 z M 4 5 L 5 5 L 5 19 L 4 19 L 4 5 z M 18 12 L 18 13 L 17 13 L 16.976562 13 C 15.327557 13 14 14.327554 14 15.976562 L 14 16 C 14 17.108 13.108 18 12 18 L 9 18 L 9 19 L 12 19 L 12.023438 19 C 13.672443 19 15 17.672446 15 16.023438 L 15 16 C 15 14.892 15.892 14 17 14 L 18 14 L 18 15 L 20 13.5 L 18 12 z M 9 13 L 9 14 L 12 14 C 12.398899 14 12.766762 14.118675 13.078125 14.318359 C 13.153845 13.981498 13.288 13.669142 13.466797 13.386719 C 13.037922 13.147813 12.551106 13 12.023438 13 L 12 13 L 9 13 z M 18 17 L 18 18 L 17 18 C 16.601101 18 16.233238 17.881325 15.921875 17.681641 C 15.846155 18.018502 15.712 18.330858 15.533203 18.613281 C 15.962077 18.852187 16.44889 19 16.976562 19 L 17 19 L 18 19 L 18 20 L 20 18.5 L 18 17 z "
     class="ColorScheme-Text"
     />
</svg>

<svg xmlns="http://www.w3.org/2000/svg" viewBox="0 0 24 24"><path d="M3 4v16h5v-2a1 1 0 0 0-1 1H6V5h1a1 1 0 0 0 2 0h8a1 1 0 0 0 2 0h1v7h1V4H3zm17 8a7 7 0 0 0-14 0 6.983 6.983 0 0 0 2 4.867v-1.58A5.982 5.982 0 0 1 7 12a6 6 0 1 1 12 0h1zM4 5h1v14H4V5zm14 7v1h-1.023A2.97 2.97 0 0 0 14 15.977V16c0 1.108-.892 2-2 2H9v1h3.023A2.97 2.97 0 0 0 15 16.023V16c0-1.108.892-2 2-2h1v1l2-1.5-2-1.5zm-9 1v1h3c.399 0 .767.119 1.078.318.076-.337.21-.649.389-.931A2.95 2.95 0 0 0 12.023 13H9zm9 4v1h-1c-.399 0-.767-.119-1.078-.318-.076.337-.21.649-.389.931a2.95 2.95 0 0 0 1.444.387H18v1l2-1.5-2-1.5z" style="fill:currentColor;fill-opacity:1;stroke:none;color:#dedede"/></svg>
